X: 722
T: Aherne's Egg
R: jig
M: 6/8
K: Emixolydian
BGE EDB,|DEF EGB|e3 geB|edB AGA|
Bec d2B|cAB GEF|=GDB, BA^G|1 AFB EGA:|2 AFB EGB||
ege d2B|cAE AFD|B,EG AGA|FBG ABc|
BGB e2c|dAF DFA|GBG AFB|1 EFE EGB:|2 EFE EGA||

